app/dist/common/images/rent-the-runway.svg

<svg height="18" viewBox="0 0 18 18" width="18" xmlns="http://www.w3.org/2000/svg"><path d="m0 0h18v18h-18z" fill="#e5c1da"/><path d="m5 3h8v12h-8zm.5.5v2.5h4.52l2.18-2.5zm7 .41-2.18 2.49-4.51 5.1h6.69zm0 8.09h-3.25v2.5h3.25zm-3.75 2.5v-2.5h-3.25v2.5zm-3.25-3.42v-4.6h4.08z" fill="#fff" fill-rule="evenodd"/><path d="m7 4h1.5v1.5h-1.5zm3 4.5h1.5v1.5h-1.5zm-2 4h-1.5v1.5h1.5z" fill="#f1f1f1"/></svg>

<!-- by TradingView --><svg xmlns="http://www.w3.org/2000/svg" width="18" height="18" viewBox="0 0 18 18"><path fill="#E5C1DA" d="M0 0h18v18H0z"/><path fill-rule="evenodd" d="M5 3h8v12H5V3zm.5.5V6h4.52l2.18-2.5H5.5zm7 .41L10.32 6.4l-4.51 5.1h6.69V3.91zm0 8.09H9.25v2.5h3.25V12zm-3.75 2.5V12H5.5v2.5h3.25zM5.5 11.08v-4.6h4.08l-4.08 4.6z" fill="#fff"/><path d="M7 4h1.5v1.5H7V4zm3 4.5h1.5V10H10V8.5zm-2 4H6.5V14H8v-1.5z" fill="#F1F1F1"/></svg>
